X:1
T:Title
%%score ( 1 2 ) 3
L:1/8
Q:1/4=105
M:9/8
K:Ab
V:1 treble nm="Grand Piano, Soprano"
V:2 treble 
V:3 bass nm="Choir Pad, Seattle, 10.9.11.10 D"
V:1
 [CE][_C=D][=CE] [_DF]3 [CE]3 | [DG][DF][DG] [CA]3 [CA]3 | [Ec][DB][CA] [Ec]3 [Ec]3 | %3
w: By~Elisha~Albright~Hoffman * * * *|||
 [=DB][DF][DB] A3 G3 | [CE][_C=D][=CE] [_DF]3 [CE]2 [CA] | [EA][EB][Ec] [Fd]3 [DF]3 | %6
w: |||
 [FB][Fc][Fd] [Ec]3 [EA]2 [EA] | [DG][DF][DE] [CA]6 | [Ae][Ae][Ae] [Ae]3 [Ac]3 | %9
w: |||
 [Ac][Ac][Ad] [Ac]3 [EA]3 | [Ae][Ae][Af] [Ae]3 [Ac]3 | [Ac][AB]A [Ge]6 | %12
w: |||
 [CE][_C=D][=CE] [_DF]3 [CE]2 [CA] | [EA][EB][Ec] [Fd]3 [DF]3 | [FB][Fc][Fd] [Ec]3 [EA]2 [EA] | %15
w: |||
 [DG][DF][DE] [CA]6- | [CA]3 z3 z3 |] %17
w: ||
V:2
 x9 | x9 | x9 | z3 _D6 | x9 | x9 | x9 | x9 | x9 | x9 | x9 | x9 | x9 | x9 | x9 | x9 | x9 |] %17
V:3
 [A,,A,][A,,A,][A,,A,] [A,,A,]3 [A,,A,]3 | [E,B,][E,A,][E,B,] [A,,A,]3 [A,,A,]3 | %2
 [A,,A,][A,,A,][A,,A,] [A,,A,]3 [A,,A,]3 | [B,,F,][B,,B,][B,,B,] [E,B,]6 | %4
 [A,,A,][A,,A,][A,,A,] [A,,A,]3 [A,,A,]2 [A,,A,] | [C,A,][E,G,]A, [D,A,]3 [D,A,]3 | %6
 [D,A,][D,A,][D,A,] [E,A,]3 [E,C]2 [E,C] | [E,B,][E,A,][E,G,] [A,,A,]6 | %8
 [A,C][A,C][A,D] [A,C]3 [A,E]3 | [A,E][A,E][A,F][K:bass] [A,E]3 [A,C]3 | %10
 [A,C][A,C][A,D] [A,C]3 [A,E]3 | [A,E][A,D][A,C] [E,B,]6 | %12
 [A,,A,][A,,A,][A,,A,] [A,,A,]3 [A,,A,]2 [A,,A,] | [C,A,][E,G,]A, [D,A,]3 [D,A,]3 | %14
 [D,A,][D,A,][D,A,] [E,A,]3 [E,C]2 [E,C] | [E,B,][E,A,][E,G,] [A,,A,]6- | [A,,A,]3 z3 z3 |] %17

